icon/lg/100tb.svg

<?xml version="1.0" encoding="UTF-8" standalone="no"?>
<svg viewBox="0 0 512 190" version="1.1" xmlns="http://www.w3.org/2000/svg" xmlns:xlink="http://www.w3.org/1999/xlink" preserveAspectRatio="xMidYMid" height="1em" width="1em">
  <g>
    <path d="M49.4427074,2.09729041 L0.00045132137,53.6487217 L24.4470255,75.8221406 L42.1794421,62.533735 L42.1794421,186.982594 L94.9028045,186.982594 L94.9028045,2.09729041 L49.4427074,2.09729041 Z M463.231289,129.490119 C438.590647,145.414241 411.94012,147.586601 384.481728,138.685039 C370.602091,134.18687 359.699672,124.418771 349.226007,114.570939 C333.198081,99.4998136 320.282768,81.6951855 306.509944,64.6773611 C292.154915,46.9389269 277.028127,30.172338 257.481399,17.9129452 C241.287988,7.75821435 224.061051,1.33591125 204.834761,1.11025057 C174.680476,0.755211092 149.490726,12.0863863 129.904883,35.0105031 C124.84557,40.9348482 120.694918,47.3902482 117.625933,54.3706854 C115.641623,58.8823947 110.895227,70.3610015 110.027185,76.6704743 C110.753813,75.319519 114.535886,65.8598231 115.253487,64.5043546 C117.126471,60.2649425 119.002463,57.924089 121.227477,54.960412 C125.181053,49.6980048 129.972581,45.2088616 136.124091,41.971383 C162.473737,28.1037817 198.608031,33.0893784 220.82959,53.3221154 C240.368797,71.1116994 256.578756,91.934163 274.417986,111.271779 C291.086788,129.339678 306.834895,148.329777 325.373673,164.560798 C343.360334,180.308905 364.044392,189.458693 388.582735,189.208962 C431.297294,188.775694 468.379362,160.489879 479.439744,119.121762 C480.691409,114.440055 482.138646,108.624027 481.601574,102.225795 C477.568265,113.51936 472.233646,123.671082 463.231289,129.490119 Z M230.831775,123.950299 C220.835006,131.299316 210.570454,138.194002 197.059397,134.945992 C180.179977,130.887109 168.961633,120.621052 165.311947,103.645351 C161.902966,87.7889267 166.688477,74.0597306 179.414235,63.5198722 C185.143008,58.7749802 191.494604,56.011389 198.377255,54.8108742 C201.921632,54.1910595 206.77785,54.750698 210.591516,54.9026429 C197.919916,45.5241848 182.43508,41.7571558 167.118737,41.97379 C140.957142,42.3423691 124.823907,53.0296592 115.106958,77.3378282 C111.194002,87.1284931 107.897851,97.3358781 109.0758,108.048743 C112.808228,133.116636 124.417718,154.059452 144.736206,169.347211 C173.249186,190.798516 204.613012,195.398985 237.900972,182.056421 C258.956618,173.616712 275.456927,155.682705 290.767253,139.739025 L255.695069,99.8452249 C248.901178,107.513175 239.121044,117.855956 230.831775,123.950299 Z M438.910032,38.463262 C438.910032,31.3730033 440.622044,24.6874294 443.638376,18.7781282 C422.194593,3.25267311 394.7016,-2.94848251 368.607702,2.99842874 C342.59053,8.92879154 322.141158,23.9923945 303.424861,42.1129475 C301.473649,44.0024796 299.245625,46.856335 299.245625,46.856335 L334.975234,90.2373451 L338.424834,86.7486309 C347.466305,76.8406224 356.84025,67.2455301 368.484341,60.2711106 C373.245782,57.4187595 378.181733,54.7439282 383.829268,54.564904 C400.671077,54.0278316 413.604443,61.2399471 421.577787,75.9139092 C429.486442,90.467519 428.08885,105.027146 418.814196,118.760856 C413.778954,126.218189 406.444982,130.684766 398.306153,134.370557 C416.634314,137.409455 434.398323,136.434601 451.479332,128.52745 C471.654902,119.186602 481.505743,98.2588303 481.039378,81.8081663 C457.660931,81.1462283 438.910032,62.0011758 438.910032,38.463262 Z" fill="#919FA1"/>
    <path d="M479.528955,20.2792231 L479.528955,28.5910583 L471.161457,28.5910583 L471.161457,57.814117 L462.366708,57.814117 L462.366708,28.5910583 L453.809655,28.5910583 L453.809655,20.2792231 L479.528955,20.2792231 Z M498.001689,49.4839281 C499.424856,49.4839281 500.533602,49.0551728 501.323415,48.2503163 C502.114732,47.4454599 502.537469,46.3743238 502.537469,45.0865535 C502.537469,43.746129 502.114732,43.6739176 501.270761,42.9232198 C500.42679,42.1710175 499.319548,41.7964207 498.001689,41.7964207 L492.728751,41.7964207 L492.728751,49.4839281 L498.001689,49.4839281 Z M497.263027,34.9859813 L497.263027,34.8791685 C498.370269,34.8791685 499.319548,34.557226 500.058211,33.9133408 C500.796873,33.2709601 501.165452,32.411945 501.165452,31.3934632 C501.165452,30.3208227 500.796873,29.4633121 500.058211,28.8194269 C499.319548,28.1770462 498.370269,27.8551036 497.263027,27.8551036 L492.728751,27.8551036 L492.728751,34.9859813 L497.263027,34.9859813 Z M498.58239,20.2939663 L498.740352,20.132995 C500.374135,20.132995 501.904115,20.400779 503.274627,20.8836929 C504.646644,21.3666067 505.80654,22.063146 506.75582,22.9748152 C507.705099,23.8864844 508.442257,24.9591248 508.970303,26.1927366 C509.498349,27.4263483 509.76162,28.7126142 509.76162,30.1071973 C509.76162,31.0715206 509.988785,32.389379 509.67286,33.1942354 C509.356935,33.9975875 508.986852,34.6956312 508.512964,35.3380119 C508.037572,35.9818971 507.511031,36.5189695 506.930331,36.9477248 C506.34963,37.3764801 505.823089,37.6442641 505.349201,37.8052354 L505.349201,37.859394 C506.191668,38.0730194 506.650511,38.0429313 507.441828,38.5784994 C508.231641,39.1155718 508.917649,39.7594569 509.498349,40.562809 C510.077545,41.3676654 510.552937,42.2793346 510.921516,43.2978165 C511.290095,44.3162984 511.502216,45.3362847 511.502216,46.4074207 C511.502216,48.0697878 511.237441,49.5711835 510.710899,50.9657666 C510.182853,52.3603496 509.393041,53.5398028 508.336949,54.5582847 C507.282361,55.5767666 505.964503,56.381623 504.329215,56.9713496 C502.695432,57.5610762 500.796873,57.8288602 498.58239,57.8288602 L484.07993,57.8288602 L484.07993,20.2939663 L498.58239,20.2939663 Z" fill="#3390DA"/>
  </g>
</svg>

<svg width="512" height="190" xmlns="http://www.w3.org/2000/svg" preserveAspectRatio="xMidYMid"><path d="M49.443 2.097 0 53.65l24.447 22.173 17.732-13.288v124.449h52.724V2.097h-45.46ZM463.23 129.49c-24.64 15.924-51.29 18.097-78.75 9.195-13.879-4.498-24.781-14.266-35.255-24.114-16.028-15.071-28.943-32.876-42.716-49.894-14.355-17.738-29.482-34.505-49.029-46.764-16.193-10.155-33.42-16.577-52.646-16.803-30.155-.355-55.344 10.976-74.93 33.9-5.06 5.925-9.21 12.38-12.28 19.36-1.983 4.512-6.73 15.991-7.598 22.3.727-1.35 4.509-10.81 5.226-12.166 1.873-4.24 3.75-6.58 5.974-9.544 3.954-5.262 8.746-9.751 14.897-12.989 26.35-13.867 62.484-8.882 84.706 11.351 19.539 17.79 35.749 38.612 53.588 57.95 16.669 18.068 32.417 37.058 50.956 53.289 17.986 15.748 38.67 24.898 63.209 24.648 42.714-.433 79.796-28.72 90.857-70.087 1.251-4.682 2.699-10.498 2.162-16.896-4.034 11.293-9.368 21.445-18.37 27.264Zm-232.4-5.54c-9.996 7.35-20.26 14.244-33.772 10.996-16.879-4.059-28.097-14.325-31.747-31.3-3.409-15.857 1.376-29.586 14.102-40.126 5.729-4.745 12.08-7.509 18.963-8.71 3.545-.619 8.4-.06 12.215.093-12.672-9.379-28.157-13.146-43.473-12.93-26.162.37-42.295 11.057-52.012 35.365-3.913 9.79-7.21 19.998-6.031 30.71 3.732 25.069 15.342 46.011 35.66 61.3 28.513 21.45 59.877 26.051 93.165 12.708 21.056-8.44 37.556-26.373 52.866-42.317l-35.072-39.894c-6.794 7.668-16.574 18.011-24.863 24.105ZM438.91 38.463c0-7.09 1.712-13.776 4.728-19.685-21.443-15.525-48.936-21.726-75.03-15.78-26.017 5.93-46.467 20.994-65.183 39.115-1.951 1.89-4.18 4.743-4.18 4.743l35.73 43.381 3.45-3.488c9.041-9.908 18.415-19.503 30.06-26.478 4.76-2.852 9.697-5.527 15.344-5.706 16.842-.537 29.775 6.675 37.749 21.349 7.908 14.554 6.51 29.113-2.764 42.847-5.035 7.457-12.369 11.924-20.508 15.61 18.328 3.038 36.092 2.064 53.173-5.844 20.176-9.34 30.027-30.268 29.56-46.719-23.378-.662-42.129-19.807-42.129-43.345Z" fill="#919FA1"/><path d="M479.529 20.28v8.311h-8.368v29.223h-8.794V28.591h-8.557V20.28h25.719Zm18.473 29.204c1.423 0 2.532-.429 3.321-1.234.792-.805 1.214-1.876 1.214-3.163 0-1.34-.422-1.413-1.266-2.164-.844-.752-1.951-1.127-3.27-1.127h-5.272v7.688h5.273Zm-.739-14.498v-.107c1.107 0 2.057-.322 2.795-.966.739-.642 1.107-1.501 1.107-2.52 0-1.072-.368-1.93-1.107-2.574-.738-.642-1.688-.964-2.795-.964h-4.534v7.131h4.534Zm1.32-14.692.157-.161c1.634 0 3.164.268 4.535.75 1.372.484 2.532 1.18 3.48 2.092a9.705 9.705 0 0 1 2.215 3.218 9.778 9.778 0 0 1 .792 3.914c0 .965.227 2.282-.09 3.087a9.225 9.225 0 0 1-1.159 2.144 7.556 7.556 0 0 1-1.583 1.61c-.58.428-1.107.696-1.58.857v.054c.842.214 1.3.184 2.092.72a8.145 8.145 0 0 1 2.056 1.984c.58.805 1.055 1.716 1.424 2.735.368 1.018.58 2.038.58 3.11 0 1.662-.265 3.163-.791 4.558a9.66 9.66 0 0 1-2.374 3.592c-1.055 1.019-2.372 1.824-4.008 2.413-1.634.59-3.532.858-5.747.858H484.08V20.294h14.502Z" fill="#3390DA"/></svg>
